icon-themes/sukapura_svg/svx/res/doc_modified_yes_14.svg

<svg viewBox="0 0 14 10" xmlns="http://www.w3.org/2000/svg"><g transform="matrix(-1 0 0 -1 14 10)"><path d="m3 1h6.3892117l1.6107883 1.6689307v6.3310693h-8z" fill="#fff" fill-rule="evenodd"/><path d="m2.5 0a.50005.50005 0 0 0 -.5.5v9a.50005.50005 0 0 0 .5.5h2.5 4 2.5a.50005.50005 0 0 0 .5-.5v-7a.50005.50005 0 0 0 -.146484-.3535156l-2.0000004-2.00000002a.50005.50005 0 0 0 -.3535156-.14648438h-1.5-3zm.5 1h1v2c0 .554.446 1 1 1h3c.554 0 1-.446 1-1v-2h.2929688l1.7070312 1.7070312v6.2929688h-1v-2c0-.554-.446-1-1-1h-4c-.554 0-1 .446-1 1v2h-1zm2 0h2v2h-2zm0 6h4v2h-4z" fill="#d70015"/></g></svg>

<?xml version="1.0" encoding="UTF-8" standalone="no"?>
<svg
   viewBox="0 0 14 14"
   version="1.1"
   id="svg143"
   sodipodi:docname="doc_modified_yes_14.svg"
   width="14"
   height="14"
   inkscape:export-filename="doc_modified_yes_14.png"
   inkscape:export-xdpi="90"
   inkscape:export-ydpi="90"
   inkscape:version="1.2.2 (b0a8486541, 2022-12-01)"
   xmlns:inkscape="http://www.inkscape.org/namespaces/inkscape"
   xmlns:sodipodi="http://sodipodi.sourceforge.net/DTD/sodipodi-0.dtd"
   xmlns="http://www.w3.org/2000/svg"
   xmlns:svg="http://www.w3.org/2000/svg">
  <defs
     id="defs147" />
  <sodipodi:namedview
     id="namedview145"
     pagecolor="#505050"
     bordercolor="#ffffff"
     borderopacity="1"
     inkscape:showpageshadow="0"
     inkscape:pageopacity="0"
     inkscape:pagecheckerboard="1"
     inkscape:deskcolor="#505050"
     showgrid="false"
     inkscape:zoom="23.6"
     inkscape:cx="7.1186441"
     inkscape:cy="5.1059322"
     inkscape:window-width="1439"
     inkscape:window-height="673"
     inkscape:window-x="419"
     inkscape:window-y="145"
     inkscape:window-maximized="0"
     inkscape:current-layer="svg143" />
  <g
     transform="rotate(180,7,6)"
     id="g141">
    <path
       d="M 3,1 H 9.3892117 L 11,2.6689307 V 9 H 3 Z"
       fill="#ffffff"
       fill-rule="evenodd"
       id="path137" />
    <path
       d="M 2.5,0 A 0.50005,0.50005 0 0 0 2,0.5 v 9 A 0.50005,0.50005 0 0 0 2.5,10 H 5 9 11.5 A 0.50005,0.50005 0 0 0 12,9.5 v -7 A 0.50005,0.50005 0 0 0 11.853516,2.1464844 L 9.8535156,0.14648438 A 0.50005,0.50005 0 0 0 9.5,0 H 8 5 Z M 3,1 H 4 V 3 C 4,3.554 4.446,4 5,4 H 8 C 8.554,4 9,3.554 9,3 V 1 H 9.2929688 L 11,2.7070312 V 9 H 10 V 7 C 10,6.446 9.554,6 9,6 H 5 C 4.446,6 4,6.446 4,7 V 9 H 3 Z M 5,1 H 7 V 3 H 5 Z M 5,7 H 9 V 9 H 5 Z"
       fill="#d70015"
       id="path139" />
  </g>
  <rect
     style="fill:none;stroke:#5f5f5f;stroke-width:0.999995;stroke-linecap:round;stroke-linejoin:bevel;stroke-opacity:1;paint-order:markers stroke fill"
     id="rect605"
     width="13"
     height="13"
     x="0.5"
     y="0.5" />
</svg>
